; generated by PrusaSlicer 2.8.0+win64 on 2024-07-23 at 19:27:21 UTC


;
;

;
;
; 

; external perimeters extrusion width = 0.45mm
; perimeters extrusion width = 0.45mm
; infill extrusion width = 0.45mm
; solid infill extrusion width = 0.45mm
; top infill extrusion width = 0.40mm
; first layer extrusion width = 0.42mm



; Pre-Processed for Cancel-Object support by preprocess_cancellation v0.2.0
; 1 known objects
EXCLUDE_OBJECT_DEFINE NAME=2_stl_id_0_copy_0 CENTER=133.380,149.201 POLYGON=[[84.232,114.472],[84.232,185.429],[215.348,185.429],[215.348,114.472]]
M73 P0 R86

; printing object 2.stl id:0 copy 0
EXCLUDE_OBJECT_START NAME=2_stl_id_0_copy_0
; stop printing object 2.stl id:0 copy 0
EXCLUDE_OBJECT_END NAME=2_stl_id_0_copy_0

M190 S50 ; set bed temperature and wait for it to be reached
M104 S205 ; set temperature
;TYPE:Custom
START_PRINT BED_TEMP=50 EXTRUDER_TEMP=205
M109 S205 ; set temperature and wait for it to be reached
G21 ; set units to millimeters
G90 ; use absolute coordinates
M82 ; use absolute distances for extrusion
G92 E0
; Filament gcode
M107
;LAYER_CHANGE
;Z:0.2
;HEIGHT:0.2
G1 E-6 F3600
G92 E0
G1 Z.2 F9000
G1 X97.206 Y119.008
G1 E6 F3000
G92 E0
;TYPE:Skirt/Brim
;WIDTH:0.42
G1 F1200
G1 X98.847 Y118.158 E.05795
G1 X142.137 Y111.236 E1.43252
G1 X143.65 Y111.392 E1.48021
G1 X144.657 Y112.035 E1.51767
G1 X218.034 Y183.632 E4.73211
G1 X218.811 Y184.94 E4.77981
M73 P0 R85
G1 X218.831 Y186.461 E4.8275
G1 X218.089 Y187.789 E4.8752
G1 X216.783 Y188.569 E4.9229
G1 X215.576 Y188.653 E4.96084
G1 X104.701 Y173.355 E8.47018
G1 X103.299 Y172.765 E8.51787
G1 X102.618 Y172.016 E8.54961
G1 X81.354 Y138.498 E9.79419
G1 X80.899 Y137.046 E9.8419
G1 X81.229 Y135.561 E9.8896
G1 X81.733 Y134.866 E9.91652
G1 X97.164 Y119.051 E10.60932
G1 X97.164 Y119.051 F9000
G1 X97.434 Y119.315
G1 F1200
G1 X97.476 Y119.272 E10.6112
G1 X98.907 Y118.53 E10.66174
G1 X142.197 Y111.608 E12.03631
G1 X143.605 Y111.78 E12.08079
G1 X144.393 Y112.305 E12.11048
G1 X217.77 Y183.902 E15.32492
G1 X218.472 Y185.135 E15.36941
G1 X218.412 Y186.552 E15.41388
G1 X217.607 Y187.72 E15.45836
G1 X215.628 Y188.28 E15.52285
G1 X104.753 Y172.981 E19.0322
G1 X103.456 Y172.407 E19.07667
G1 X102.937 Y171.814 E19.10138
G1 X81.672 Y138.296 E20.34597
G1 X81.273 Y136.935 E20.39044
G1 X82.002 Y135.13 E20.45148
G1 X97.392 Y119.358 E21.14242
G1 X97.392 Y119.358 F9000
G1 X97.662 Y119.621
G1 F1200
G1 X97.745 Y119.535 E21.14617
G1 X98.966 Y118.902 E21.18929
G1 X142.256 Y111.981 E22.56385
G1 X143.55 Y112.169 E22.60485
G1 X144.13 Y112.575 E22.62705
G1 X217.507 Y184.172 E25.84149
G1 X218.127 Y185.323 E25.88248
G1 X217.98 Y186.623 E25.9235
G1 X217.118 Y187.607 E25.96452
G1 X215.68 Y187.906 E26.01057
G1 X104.804 Y172.608 E29.51994
G1 X103.255 Y171.612 E29.57768
G1 X81.991 Y138.094 E30.82226
G1 X81.652 Y136.83 E30.86329
G1 X82.272 Y135.393 E30.91236
G1 X97.62 Y119.664 E31.60141
G1 E27.40141 F3600
M73 P1 R85
;WIPE_START
G1 F7200
G1 X97.662 Y119.621 E27.37286
G1 X97.745 Y119.535 E27.31609
G1 X98.966 Y118.902 E26.66281
G1 X101.173 Y118.549 E25.60141
;WIPE_END
G92 E0
; printing object 2.stl id:0 copy 0
EXCLUDE_OBJECT_START NAME=2_stl_id_0_copy_0
G92 E0
G1 X133.269 Y145.02 F9000
G1 E6 F3000
;TYPE:Perimeter
;WIDTH:0.419999
G1 F1200
G1 X133.483 Y144.85 E6.00857
G1 X133.771 Y144.751 E6.01812
G1 X139.46 Y144.71 E6.1965
G1 X139.782 Y144.765 E6.20674
G1 X140.086 Y144.945 E6.21782
G1 X140.305 Y145.226 E6.22899
G1 X140.401 Y145.548 E6.23953
G1 X140.379 Y146.191 E6.2597
G1 X140.252 Y146.745 E6.27752
G1 X139.905 Y147.496 E6.30346
G1 X139.442 Y148.157 E6.32876
G1 X139.064 Y148.575 E6.34643
G1 X138.374 Y149.232 E6.3763
G1 X137.536 Y149.939 E6.41068
;WIDTH:0.428097
G1 X137.129 Y150.311 E6.42834
G1 X136.745 Y150.703 E6.44591
;WIDTH:0.423355
G1 X136.402 Y151.103 E6.46258
;WIDTH:0.419999
G1 X136.223 Y151.456 E6.47499
G1 X136.195 Y151.687 E6.48229
G1 X136.263 Y151.819 E6.48695
G1 X136.457 Y151.909 E6.49366
G1 X136.77 Y151.906 E6.50347
G1 X136.967 Y151.814 E6.51029
G1 X137.065 Y151.593 E6.51787
;WIDTH:0.423355
G1 X137.166 Y150.96 E6.53815
;WIDTH:0.436631
G1 X137.274 Y150.729 E6.5465
G1 X137.427 Y150.56 E6.55396
;WIDTH:0.427416
G1 X137.775 Y150.365 E6.56671
;WIDTH:0.419999
G1 X138.152 Y150.325 E6.5786
G1 X139.414 Y150.448 E6.61836
G1 X139.763 Y150.553 E6.62979
G1 X140.012 Y150.744 E6.63963
G1 X140.205 Y151.056 E6.65113
G1 X140.265 Y151.4 E6.66208
G1 X140.152 Y152.157 E6.68608
G1 X139.979 Y152.758 E6.70569
G1 X139.63 Y153.397 E6.72852
G1 X139.218 Y153.913 E6.74922
G1 X139.004 Y154.103 E6.75819
G1 X138.568 Y154.386 E6.77449
G1 X137.992 Y154.661 E6.7945
G1 X137.293 Y154.829 E6.81704
G1 X136.666 Y154.883 E6.83677
G1 X136.011 Y154.846 E6.85734
G1 X135.387 Y154.725 E6.87727
G1 X134.71 Y154.429 E6.90044
G1 X134.153 Y154.059 E6.92141
G1 X133.962 Y153.885 E6.92951
G1 X133.614 Y153.461 E6.94671
G1 X133.339 Y153.007 E6.96335
G1 X133.241 Y152.777 E6.97119
G1 X133.105 Y152.287 E6.98713
G1 X133.033 Y151.728 E7.0048
G1 X133.065 Y151.181 E7.02198
G1 X133.119 Y150.827 E7.03321
G1 X133.271 Y150.339 E7.04924
G1 X133.64 Y149.63 E7.0743
G1 X134.097 Y149.026 E7.09805
G1 X134.911 Y148.201 E7.13439
G1 X135.356 Y147.799 E7.15319
G1 X133.942 Y147.81 E7.19753
G1 X133.684 Y147.776 E7.20569
G1 X133.299 Y147.563 E7.21949
G1 X133.077 Y147.257 E7.23134
G1 X132.992 Y146.872 E7.2437
G1 X132.987 Y145.685 E7.28092
G1 X133.048 Y145.345 E7.29175
G1 X133.221 Y145.058 E7.30226
G1 X133.221 Y145.058 F9000
G1 X133.537 Y145.294
G1 F1200
G1 X133.611 Y145.213 E7.3057
G1 X133.834 Y145.122 E7.31325
G1 X139.461 Y145.087 E7.48968
G1 X139.719 Y145.148 E7.49799
G1 X139.933 Y145.336 E7.50692
G1 X140.026 Y145.59 E7.5154
G1 X140.003 Y146.171 E7.53363
G1 X139.885 Y146.658 E7.54934
G1 X139.566 Y147.33 E7.57266
G1 X139.137 Y147.935 E7.59591
G1 X138.787 Y148.318 E7.61218
G1 X138.114 Y148.958 E7.6413
G1 X136.859 Y150.041 E7.69328
G1 X136.462 Y150.451 E7.71117
G1 X136.112 Y150.85 E7.72781
G1 X135.881 Y151.252 E7.74235
G1 X135.8 Y151.634 E7.75459
G1 X135.851 Y151.889 E7.76274
G1 X136 Y152.1 E7.77084
G1 X136.266 Y152.262 E7.78061
G1 X136.61 Y152.314 E7.79152
G1 X136.977 Y152.254 E7.80318
G1 X137.244 Y152.085 E7.81309
G1 X137.418 Y151.798 E7.82361
G1 X137.5 Y151.188 E7.84291
G1 X137.592 Y150.945 E7.85106
G1 X137.682 Y150.843 E7.85533
G1 X137.889 Y150.724 E7.86282
G1 X138.115 Y150.7 E7.86995
G1 X139.377 Y150.824 E7.90971
G1 X139.645 Y150.922 E7.91866
G1 X139.832 Y151.142 E7.92771
G1 X139.887 Y151.423 E7.93669
G1 X139.78 Y152.097 E7.95809
G1 X139.618 Y152.649 E7.97613
G1 X139.306 Y153.204 E7.99609
G1 X138.927 Y153.673 E8.015
G1 X138.363 Y154.069 E8.03661
G1 X137.834 Y154.318 E8.05494
G1 X137.218 Y154.459 E8.07475
G1 X136.638 Y154.507 E8.093
G1 X136.038 Y154.47 E8.11185
G1 X135.464 Y154.356 E8.1302
G1 X134.874 Y154.089 E8.15051
G1 X134.367 Y153.748 E8.16967
G1 X133.949 Y153.279 E8.18937
G1 X133.663 Y152.814 E8.20649
G1 X133.48 Y152.233 E8.22559
G1 X133.407 Y151.683 E8.24299
G1 X133.457 Y151.051 E8.26287
G1 X133.631 Y150.451 E8.28246
G1 X133.97 Y149.812 E8.30514
G1 X134.394 Y149.258 E8.32701
G1 X135.177 Y148.467 E8.36191
G1 X136.111 Y147.656 E8.40069
G1 X136.477 Y147.374 E8.41518
G1 X135.356 Y147.422 E8.45036
G1 X133.939 Y147.433 E8.49479
G1 X133.785 Y147.412 E8.49966
G1 X133.553 Y147.285 E8.50795
G1 X133.396 Y147.038 E8.51713
G1 X133.369 Y146.87 E8.52247
G1 X133.364 Y145.683 E8.55969
G1 X133.43 Y145.414 E8.56837
G1 X133.497 Y145.339 E8.57152
G1 X133.497 Y145.339 F9000
G1 X133.794 Y145.566
;TYPE:External perimeter
G1 F1200
G1 X133.808 Y145.536 E8.57256
G1 X133.898 Y145.494 E8.57567
G1 X139.463 Y145.464 E8.75016
G1 X139.606 Y145.528 E8.75507
G1 X139.652 Y145.663 E8.75954
G1 X139.625 Y146.168 E8.7754
G1 X139.511 Y146.584 E8.78892
G1 X139.227 Y147.165 E8.8092
G1 X138.832 Y147.714 E8.83041
G1 X138.324 Y148.239 E8.85332
G1 X137.855 Y148.685 E8.87361
G1 X137.041 Y149.371 E8.90699
G1 X136.598 Y149.769 E8.92566
G1 X136.185 Y150.195 E8.94426
G1 X135.804 Y150.629 E8.96237
G1 X135.524 Y151.115 E8.97996
G1 X135.415 Y151.632 E8.99653
G1 X135.497 Y152.041 E9.00961
G1 X135.738 Y152.382 E9.0227
G1 X136.135 Y152.623 E9.03726
G1 X136.612 Y152.695 E9.05239
G1 X137.114 Y152.614 E9.06833
G1 X137.52 Y152.355 E9.08343
G1 X137.781 Y151.926 E9.09917
G1 X137.874 Y151.238 E9.12094
G1 X137.934 Y151.123 E9.12501
G1 X138.079 Y151.075 E9.1298
G1 X139.341 Y151.199 E9.16956
G1 X139.48 Y151.284 E9.17467
G1 X139.508 Y151.417 E9.17893
G1 X139.408 Y152.037 E9.19862
G1 X139.257 Y152.54 E9.21509
G1 X138.983 Y153.011 E9.23217
G1 X138.637 Y153.432 E9.24926
G1 X138.158 Y153.753 E9.26734
G1 X137.677 Y153.976 E9.28396
G1 X137.142 Y154.09 E9.30111
G1 X136.61 Y154.131 E9.31784
G1 X136.065 Y154.094 E9.33497
G1 X135.541 Y153.987 E9.35174
G1 X135.038 Y153.75 E9.36917
G1 X134.58 Y153.438 E9.38655
G1 X134.239 Y153.038 E9.40303
G1 X133.977 Y152.602 E9.41898
G1 X133.839 Y152.113 E9.43491
G1 X133.78 Y151.612 E9.45073
G1 X133.832 Y151.088 E9.46724
G1 X133.991 Y150.563 E9.48444
G1 X134.3 Y149.994 E9.50474
G1 X134.691 Y149.49 E9.52474
G1 X135.444 Y148.734 E9.5582
G1 X136.354 Y147.945 E9.59596
G1 X137.137 Y147.375 E9.62633
G1 X137.544 Y146.955 E9.64467
G1 X137.007 Y146.941 E9.66151
G1 X136.038 Y147.039 E9.69205
G1 X133.937 Y147.056 E9.75793
G1 X133.808 Y147.006 E9.76227
G1 X133.747 Y146.868 E9.767
G1 X133.741 Y145.681 E9.80422
G1 X133.769 Y145.62 E9.80632
G1 E5.60632 F3600
;WIPE_START
G1 F7200
G1 X133.794 Y145.566 E5.57805
G1 X133.808 Y145.536 E5.56232
G1 X133.898 Y145.494 E5.51514
G1 X137.496 Y145.475 E3.80632
;WIPE_END
G92 E0
G1 X142.241 Y115.277 F9000
G1 E6 F3000
;TYPE:Perimeter
G1 F1200
G1 X212.922 Y184.242 E9.0963
G1 X105.737 Y169.453 E12.48884
G1 X85.188 Y137.062 E13.69157
M73 P1 R84
G1 X99.828 Y122.059 E14.34883
G1 X142.182 Y115.286 E15.69368
G1 X142.182 Y115.286 F9000
G1 X142.369 Y114.875
G1 F1200
G1 X213.353 Y184.136 E18.80326
G1 X214.054 Y184.796 E18.83345
G1 X213.103 Y184.648 E18.86363
G1 X105.513 Y169.803 E22.26899
G1 X84.71 Y137.012 E23.48657
G1 X99.645 Y121.706 E24.15709
G1 X142.31 Y114.884 E25.51181
G1 X142.31 Y114.884 F9000
G1 X142.497 Y114.472
;TYPE:External perimeter
G1 F1200
G1 X213.628 Y183.877 E28.62784
G1 X214.362 Y184.568 E28.65945
G1 X215.128 Y185.202 E28.69063
G1 X215.348 Y185.429 E28.70054
G1 X215.017 Y185.393 E28.71098
G1 X214.046 Y185.177 E28.74217
G1 X213.055 Y185.022 E28.77362
G1 X105.288 Y170.152 E32.18459
G1 X84.232 Y136.962 E33.41699
G1 X99.462 Y121.353 E34.10077
M73 P2 R84
G1 X142.437 Y114.482 E35.46533
G1 E31.26533 F3600
;WIPE_START
G1 F7200
G1 X142.497 Y114.472 E31.23644
G1 X145.166 Y117.076 E29.46533
;WIPE_END
G92 E0
G1 X137.017 Y151.182 F9000
G1 E6 F3000
;TYPE:Solid infill
;WIDTH:0.495415
G1 F1200
G1 X136.844 Y151.02 E6.00892
G1 X136.651 Y151.236 E6.01982
G1 X136.571 Y151.376 E6.02589
G1 X136.9 Y151.705 E6.0434
G1 E1.8434 F3600
;WIPE_START
G1 F7200
G1 X136.571 Y151.376 E1.62239
G1 X136.651 Y151.236 E1.5458
G1 X136.844 Y151.02 E1.40821
G1 X137.017 Y151.182 E1.29563
;WIPE_END
G1 E.0434 F3600
G92 E0
G1 X211.688 Y183.958 F9000
G1 E6 F3000
;WIDTH:0.421573
G1 F1200
G1 X190.061 Y162.331 E6.96298
G1 X167.996 Y140.802 E7.9336
G1 X210.868 Y183.673 E9.84253
G1 X210.247 Y183.588 E9.86226
G1 X145.931 Y119.272 E12.72604
G1 X142.146 Y115.579 E12.89254
G1 X141.763 Y115.64 E12.90475
G1 X209.625 Y183.502 E15.92642
G1 X209.004 Y183.416 E15.94616
G1 X141.301 Y115.714 E18.96073
G1 X140.84 Y115.787 E18.97543
M73 P2 R83
G1 X208.383 Y183.331 E21.98292
G1 X207.762 Y183.245 E22.00266
G1 X140.378 Y115.861 E25.00305
G1 X139.916 Y115.935 E25.01778
G1 X207.141 Y183.159 E28.01106
G1 X206.519 Y183.073 E28.03083
G1 X139.455 Y116.009 E31.01697
G1 X138.993 Y116.083 E31.0317
G1 X205.898 Y182.988 E34.01076
G1 X205.277 Y182.902 E34.0305
G1 X138.531 Y116.156 E37.00248
G1 X138.07 Y116.23 E37.01718
M73 P3 R83
G1 X204.656 Y182.816 E39.98203
G1 X204.035 Y182.731 E40.00176
G1 X137.608 Y116.304 E42.95953
G1 X137.146 Y116.378 E42.97426
G1 X203.413 Y182.645 E45.92491
G1 X202.792 Y182.559 E45.94465
G1 X136.685 Y116.452 E48.88818
G1 X136.223 Y116.526 E48.90291
G1 X202.171 Y182.473 E51.83933
G1 X201.55 Y182.388 E51.85906
G1 X135.761 Y116.599 E54.78843
G1 X135.3 Y116.673 E54.80313
M73 P3 R82
G1 X200.928 Y182.302 E57.72535
G1 X200.307 Y182.216 E57.74509
G1 X134.838 Y116.747 E60.66021
G1 X134.376 Y116.821 E60.67494
G1 X199.686 Y182.131 E63.58298
G1 X199.065 Y182.045 E63.60272
G1 X133.915 Y116.895 E66.50363
G1 X133.453 Y116.969 E66.51836
G1 X198.444 Y181.959 E69.41217
G1 X197.822 Y181.873 E69.43194
M73 P4 R82
G1 X132.991 Y117.042 E72.31865
G1 X132.53 Y117.116 E72.33335
G1 X197.201 Y181.788 E75.21296
G1 X196.58 Y181.702 E75.2327
G1 X132.068 Y117.19 E78.10521
G1 X131.606 Y117.264 E78.11994
G1 X195.959 Y181.616 E80.98534
G1 X195.338 Y181.531 E81.00507
G1 X131.145 Y117.338 E83.86337
G1 X130.683 Y117.411 E83.8781
G1 X194.716 Y181.445 E86.7293
G1 X194.095 Y181.359 E86.74904
G1 X130.221 Y117.485 E89.59314
G1 X129.76 Y117.559 E89.60784
G1 X193.474 Y181.273 E92.44481
G1 X192.853 Y181.188 E92.46454
M73 P4 R81
G1 X129.298 Y117.633 E95.29443
G1 X128.836 Y117.707 E95.30916
G1 X192.232 Y181.102 E98.13195
G1 X191.61 Y181.016 E98.15172
G1 X128.375 Y117.781 E100.96737
G1 X127.913 Y117.854 E100.9821
M73 P5 R81
G1 X190.989 Y180.931 E103.79069
G1 X190.368 Y180.845 E103.81043
G1 X127.451 Y117.928 E106.61192
G1 X126.99 Y118.002 E106.62662
G1 X189.747 Y180.759 E109.42098
G1 X189.125 Y180.673 E109.44075
G1 X126.528 Y118.076 E112.22799
G1 X126.066 Y118.15 E112.24272
G1 X188.504 Y180.588 E115.02288
G1 X187.883 Y180.502 E115.04262
G1 X125.605 Y118.223 E117.81568
G1 X125.143 Y118.297 E117.83041
G1 X187.262 Y180.416 E120.59636
G1 X186.641 Y180.331 E120.61609
G1 X124.681 Y118.371 E123.37496
G1 X124.219 Y118.445 E123.38969
G1 X186.019 Y180.245 E126.14144
G1 X185.398 Y180.159 E126.16118
G1 X123.758 Y118.519 E128.90581
G1 X123.296 Y118.593 E128.92054
G1 X184.777 Y180.073 E131.65806
G1 X184.156 Y179.988 E131.67779
M73 P6 R80
G1 X122.834 Y118.666 E134.40826
G1 X122.373 Y118.74 E134.42296
G1 X183.535 Y179.902 E137.1463
G1 X182.913 Y179.816 E137.16607
G1 X121.911 Y118.814 E139.88229
G1 X121.449 Y118.888 E139.89702
G1 X182.292 Y179.731 E142.60616
G1 X181.671 Y179.645 E142.6259
G1 X120.988 Y118.962 E145.32791
G1 X120.526 Y119.035 E145.34264
G1 X181.05 Y179.559 E148.03757
G1 X180.429 Y179.473 E148.05731
G1 X120.064 Y119.109 E150.74514
G1 X119.603 Y119.183 E150.75984
G1 X179.807 Y179.388 E153.44055
G1 X179.186 Y179.302 E153.46029
G1 X119.141 Y119.257 E156.1339
G1 X118.679 Y119.331 E156.14863
G1 X178.565 Y179.216 E158.81513
G1 X177.944 Y179.131 E158.83486
G1 X118.218 Y119.405 E161.49426
G1 X117.756 Y119.478 E161.50899
G1 X177.322 Y179.045 E164.16129
G1 X176.701 Y178.959 E164.18103
M73 P7 R80
G1 X117.294 Y119.552 E166.82623
G1 X116.833 Y119.626 E166.84093
G1 X176.08 Y178.873 E169.479
G1 X175.459 Y178.788 E169.49873
M73 P7 R79
G1 X116.371 Y119.7 E172.12972
G1 X115.909 Y119.774 E172.14445
G1 X174.838 Y178.702 E174.76834
G1 X174.216 Y178.616 E174.78811
G1 X115.448 Y119.848 E177.40485
G1 X114.986 Y119.921 E177.41958
G1 X139.495 Y144.431 E178.51091
G1 X139.736 Y144.457 E178.51854
G1 X140.017 Y144.558 E178.52794
G1 X140.273 Y144.731 E178.53767
G1 X140.459 Y144.936 E178.54639
G1 X140.589 Y145.166 E178.55471
G1 X140.659 Y145.377 E178.56171
G1 X140.686 Y145.622 E178.56947
G1 X173.595 Y178.531 E180.0348
G1 X172.974 Y178.445 E180.05454
G1 X140.657 Y146.128 E181.49351
G1 X140.643 Y146.365 E181.50098
G1 X140.582 Y146.589 E181.50829
G1 X172.353 Y178.359 E182.92293
G1 X171.732 Y178.273 E182.94267
G1 X140.457 Y146.999 E184.33522
G1 X140.282 Y147.359 E184.34782
G1 X171.11 Y178.188 E185.72051
G1 X170.489 Y178.102 E185.74025
G1 X140.104 Y147.717 E187.09319
G1 X139.88 Y148.029 E187.10528
G1 X169.868 Y178.016 E188.44052
G1 X169.247 Y177.931 E188.46025
G1 X139.656 Y148.34 E189.77784
G1 X139.403 Y148.622 E189.78977
G1 X168.626 Y177.845 E191.09097
G1 X168.004 Y177.759 E191.11074
G1 X139.14 Y148.895 E192.39596
G1 X138.865 Y149.156 E192.4079
G1 X167.383 Y177.673 E193.67769
G1 X166.762 Y177.588 E193.69742
G1 X140.546 Y151.371 E194.86475
G1 X140.523 Y151.142 E194.872
G1 X140.453 Y150.912 E194.87957
G1 X140.35 Y150.718 E194.88649
G1 X140.218 Y150.55 E194.89322
